src/Assets/icons/10-download-file-moodle/download-file-moodle.svg

<svg viewBox="0 0 2000 2000" xmlns="http://www.w3.org/2000/svg" xml:space="preserve" style="fill-rule:evenodd;clip-rule:evenodd;stroke-linejoin:round;stroke-miterlimit:2">
    <path d="M1399 457.84c0-25.3-15.18-45.84-33.88-45.84H585.88c-18.699 0-33.88 20.54-33.88 45.84v1054.32c0 25.3 15.181 45.84 33.88 45.84h779.24c18.7 0 33.88-20.54 33.88-45.84V457.84Z" style="fill:#e6e6e6" transform="matrix(2.36128 0 0 1.7452 -1303.42 -719.023)"/>
    <path d="M563.8 809v166.13H660L512 1116 364 975.13h96.2V809h103.6Z" style="fill:#172d4f" transform="translate(-26.079 -383.68) scale(2.00406)"/>
    <path d="m794.494 816 .69 119.644-544.678-.007V816H217v174h611V816h-33.506Z" style="fill:#172d4f" transform="matrix(2.89502 0 0 1.97194 -512.648 28.776)"/>
    <path d="M605.162 35H344v380h315.717V89.554L605.162 35ZM372.599 196.151l-19.163.587v-2.151s62.431-46.816 184.984-56.317l.782 1.956-44.584 32.46s12.244 8.511 17.599 16.035c0 0 3.522 1.019 7.04 5.866 0 0 11.422-16.677 51.232-15.253 39.81 1.425 59.534 21.771 61.792 53.579v95.817h-44.584l-.391-92.688s-.219-23.647-23.074-22.292c-22.856 1.356-21.901 22.292-21.901 22.292v92.688h-44.975v-92.688s-.534-14.375-10.56-19.945c0 0-12.27 9.44-32.851 12.514 0 0-.824 1.594-1.173 7.431-.35 5.837 0 92.688 0 92.688h-44.975v-92.688s-.128-10.234 1.173-12.515c0 0-1.612-26.174-.394-26.203 0 0-33.645-.226-35.977-1.173Z" style="fill:#172d4f" transform="translate(-600.813 -95.247) scale(3.14992)"/>
</svg>

<?xml version="1.0" encoding="UTF-8" standalone="no"?>
<!DOCTYPE svg PUBLIC "-//W3C//DTD SVG 1.1//EN" "http://www.w3.org/Graphics/SVG/1.1/DTD/svg11.dtd">
<svg width="100%" height="100%" viewBox="0 0 2000 2000" version="1.1" xmlns="http://www.w3.org/2000/svg" xmlns:xlink="http://www.w3.org/1999/xlink" xml:space="preserve" xmlns:serif="http://www.serif.com/" style="fill-rule:evenodd;clip-rule:evenodd;stroke-linejoin:round;stroke-miterlimit:2;">
    <g transform="matrix(2.36128,0,0,1.7452,-1303.42,-719.023)">
        <path d="M1399,457.84C1399,432.54 1383.82,412 1365.12,412L585.88,412C567.181,412 552,432.54 552,457.84L552,1512.16C552,1537.46 567.181,1558 585.88,1558L1365.12,1558C1383.82,1558 1399,1537.46 1399,1512.16L1399,457.84Z" style="fill:rgb(230,230,230);"/>
    </g>
    <g transform="matrix(2.00406,0,0,2.00406,-26.0788,-383.68)">
        <path d="M563.8,809L563.8,975.13L660,975.13L512,1116L364,975.13L460.2,975.13L460.2,809L563.8,809Z" style="fill:rgb(23,45,79);"/>
    </g>
    <g transform="matrix(2.89502,0,0,1.97194,-512.648,28.7756)">
        <path d="M794.494,816L795.184,935.644L250.506,935.637L250.506,816L217,816L217,990L828,990L828,816L794.494,816Z" style="fill:rgb(23,45,79);"/>
    </g>
    <g transform="matrix(3.14992,0,0,3.14992,-600.813,-95.2472)">
        <path d="M605.162,35L344,35L344,415L659.717,415L659.717,89.554L605.162,35ZM372.599,196.151L353.436,196.738L353.436,194.587C353.436,194.587 415.867,147.771 538.42,138.27L539.202,140.226L494.618,172.686C494.618,172.686 506.862,181.197 512.217,188.721C512.217,188.721 515.739,189.74 519.257,194.587C519.257,194.587 530.679,177.91 570.489,179.334C610.299,180.759 630.023,201.105 632.281,232.913L632.281,328.73L587.697,328.73L587.306,236.042C587.306,236.042 587.087,212.395 564.232,213.75C541.376,215.106 542.331,236.042 542.331,236.042L542.331,328.73L497.356,328.73L497.356,236.042C497.356,236.042 496.822,221.667 486.796,216.097C486.796,216.097 474.526,225.537 453.945,228.611C453.945,228.611 453.121,230.205 452.772,236.042C452.422,241.879 452.772,328.73 452.772,328.73L407.797,328.73L407.797,236.042C407.797,236.042 407.669,225.808 408.97,223.527C408.97,223.527 407.358,197.353 408.576,197.324C408.576,197.324 374.931,197.098 372.599,196.151Z" style="fill:rgb(23,45,79);"/>
    </g>
</svg>
